X: 1001
T: Drill: I Placing (Full)
C: Grossi
M: 4/4
L: 1/4
%%staves (S1V1 S1V2) | (S2V1 S2V2)
V: S1V1 clef=treble
V: S1V2
V: S2V1 clef=bass
V: S2V2
K: C
[V: S1V1] [Q:1/4=80] C D E F | D E F G | E F G A | F G A B | G A B c | A G F E | G F E D | F E D C | C4 |]
[V: S1V2] A, B, C D | B, C D E | C D E F | D E F G | E F G A | F E D C | E D C B, | D C B, A, | A,4 |]
[V: S2V1] F, G, A, B, | G, A, B, C | A, B, C D | B, C D E | C D E F | D C B, A, | C B, A, G, | B, A, G, F, | F,4 |]
[V: S2V2] D, E, F, G, | E, F, G, A, | F, G, A, B, | G, A, B, C | A, B, C D | B, A, G, F, | A, G, F, E, | G, F, E, D, | D,4 |]

